Newaita-dark/actions/22/go-up.svg

<svg height="22" viewBox="0 0 22 22" width="22" xmlns="http://www.w3.org/2000/svg"><g fill="#e0e0e0"><path d="m11.824219 17.453125v-12.734375c0-.5-.40625-.90625-.910157-.90625-.5 0-.90625.40625-.90625.90625v12.734375c0 .503906.40625.910156.90625.910156.503907 0 .910157-.40625.910157-.910156zm0 0"/><path d="m5.125 11.796875 6.433594-6.433594c.355468-.355469.355468-.929687 0-1.285156-.355469-.355469-.929688-.355469-1.285156 0l-6.433594 6.429687c-.355469.355469-.355469.933594 0 1.289063.355468.351563.929687.351563 1.285156 0zm0 0"/><path d="m17.992188 10.507812-6.433594-6.429687c-.355469-.355469-.929688-.355469-1.285156 0-.355469.355469-.355469.929687 0 1.285156l6.429687 6.433594c.355469.351563.933594.351563 1.289063 0 .355468-.355469.355468-.933594 0-1.289063zm0 0"/></g></svg>

<svg xmlns="http://www.w3.org/2000/svg" xmlns:xlink="http://www.w3.org/1999/xlink" width="22px" height="22px" viewBox="0 0 22 22" version="1.1">
<g id="surface1">
     <defs>
  <style id="current-color-scheme" type="text/css">
   .ColorScheme-Text { color:#eeeeee; } .ColorScheme-Highlight { color:#424242; }
  </style>
 </defs>
<path style="fill:currentColor" class="ColorScheme-Text" d="M 11.824219 17.453125 L 11.824219 4.71875 C 11.824219 4.21875 11.417969 3.8125 10.914062 3.8125 C 10.414062 3.8125 10.007812 4.21875 10.007812 4.71875 L 10.007812 17.453125 C 10.007812 17.957031 10.414062 18.363281 10.914062 18.363281 C 11.417969 18.363281 11.824219 17.957031 11.824219 17.453125 Z M 11.824219 17.453125 "/>
     <defs>
  <style id="current-color-scheme" type="text/css">
   .ColorScheme-Text { color:#eeeeee; } .ColorScheme-Highlight { color:#424242; }
  </style>
 </defs>
<path style="fill:currentColor" class="ColorScheme-Text" d="M 5.125 11.796875 L 11.558594 5.363281 C 11.914062 5.007812 11.914062 4.433594 11.558594 4.078125 C 11.203125 3.722656 10.628906 3.722656 10.273438 4.078125 L 3.839844 10.507812 C 3.484375 10.863281 3.484375 11.441406 3.839844 11.796875 C 4.195312 12.148438 4.769531 12.148438 5.125 11.796875 Z M 5.125 11.796875 "/>
     <defs>
  <style id="current-color-scheme" type="text/css">
   .ColorScheme-Text { color:#eeeeee; } .ColorScheme-Highlight { color:#424242; }
  </style>
 </defs>
<path style="fill:currentColor" class="ColorScheme-Text" d="M 17.992188 10.507812 L 11.558594 4.078125 C 11.203125 3.722656 10.628906 3.722656 10.273438 4.078125 C 9.917969 4.433594 9.917969 5.007812 10.273438 5.363281 L 16.703125 11.796875 C 17.058594 12.148438 17.636719 12.148438 17.992188 11.796875 C 18.347656 11.441406 18.347656 10.863281 17.992188 10.507812 Z M 17.992188 10.507812 "/>
</g>
</svg>
